X:1
T:We Will Follow Thee
T:We Will Follow Thee
T:Ira David Sankey
T:Frances Jane (Fanny) Crosby, 1901
T:Public Domain Courtesy of the Cyber Hymnal™
C:Ira David Sankey
Z:Public Domain
Z:Courtesy of the Cyber Hymnal™
%%score ( 1 2 ) 3
L:1/8
Q:1/4=112
M:6/8
K:F
V:1 treble 
V:2 treble 
V:3 bass 
V:1
 [FA]2 [FA] [FA]2 [FA] | [Fc]3 F3 | [FA]2 [CF] [EG]2 [CE] | [CF]6 | [FA]2 [FA] [FA]2 [FA] | %5
w: 1.~Sav- ior, where Thou|lead- est,|We will fol- low|Thee;|Where Thy lambs Thou|
w: 2.~In our child- hood’s|morn- ing,|We will fol- low|Thee;|We have heard Thy|
w: 3.~In our joy and|glad- ness,|We will fol- low|Thee;|In our times of|
 [Gc]3 [FA]3 | [EG]2 [EG] [F=B]2 [Fd] | [Ec]6 | [EB]2 [EB] [EB]2 [EB] | [Ec]2 [EG] [GB]2 [FA] | %10
w: feed- est,|We will fol- low|Thee;|By Thy lov- ing|smile at- tend- ed,|
w: warn- ing,|We will fol- low|Thee;|If our feet are|some- times wear- y,|
w: sad- ness,|We will fol- low|Thee;|Thou wilt give us,|with- out mea- sure,|
 [FA]2 [FA] [FA]2 [FA] | [^Fd]2 [FA] [Ac]2 [GB] | [EB]2 [EB] [EB]2 [EB] | [Ge]2 [Ed] [Fc]2 F | %14
w: By Thy gen- tle|hand de- fend- ed,|Till this mor- tal|life is end- ed,|
w: And the way seems|long and drear- y,|Thou wilt speak and|we will hear Thee,|
w: Rich- est bless- ings,|pur- est plea- sure,|And in Heav’n, a|price- less trea- sure.|
 [FA]2 [CF] [EG]2 [CE] | [CF]6 |] %16
w: We will fol- low|Thee.|
w: We will fol- low|Thee.|
w: We will fol- low|Thee.|
V:2
 x6 | x3 F3 | x6 | x6 | x6 | x6 | x6 | x6 | x6 | x6 | x6 | x6 | x6 | x5 F | x6 | x6 |] %16
V:3
 [F,C]2 [F,C] [F,C]2 [F,C] | [A,,C]3 [D,A,]3 | [C,C]2 [C,A,] [C,B,]2 [C,G,] | [F,A,]6 | %4
 [F,C]2 [F,C] [F,C]2 [F,C] | [E,C]3 [F,C]3 | [G,C]2 [G,C] [G,D]2 [G,=B,] | [C,C]6 | %8
 [C,G,]2 [C,G,] [C,G,]2 [C,G,] | [C,G,]2 [C,C] [F,C]2 [F,C] | [D,D]2 [D,D] [D,D]2 [D,D] | %11
 [D,A,]2 [D,D] [G,D]2 [G,D] | [C,C]2 [C,C] [C,C]2 [C,C] | [C,C]2 [C,B,] [F,A,]2 [F,A,] | %14
 [F,C]2 [F,A,] [C,B,]2 [C,G,] | [F,A,]6 |] %16

